X:1
T:Title
%%score 1 { 2 | 3 }
L:1/8
Q:1/4=107
M:6/8
K:A
V:1 treble nm="Grand Piano, Soprano"
V:2 bass nm="Choir Pad, Heathrow, 76.76 D"
V:3 bass 
V:1
 [CE] [CE]2 [Ec] [EB]2 | [EA][DF][FA]- [FA]2- [FA]/ z/ | [DF] [CE]2 [CA] [EB]2 | %3
w: By~Peter~Philip~Bilhorn,~1886 * * *|||
 [Ec] [EB]2- [EB]2- [EB]/ z/ | [DE] [CE]2 [Ec] [EB]2 | [EA][DF][FA]- [FA]2- [FA]/ z/ | %6
w: |||
 [DF] [CE]2 [Ec] [DB]2 | [CA] [CA]2- [CA]2- [CA]/ z/ | [Ec] [Ee]2 [Ec]/[^EB]/ [FA]2 | %9
w: |||
 [DF][CE][CA]- [CA]2- [CA]/ z/ | [Ec] [Ee]2 [Ec]/[^EB]/ [FA]2 | [FB] [^Ec]2- [Ec]2- [Ec]/ z/ | %12
w: |||
 [DE] [CE]2 [Ec] [EB]2 | [EA][DF][FA]- [FA]2- [FA]/ z/ | [=CF] [^CE]2 [Ec] [DB]2 | %15
w: |||
 [CA] [CA]2- [CA]3- | [CA]3 z3 |] %17
w: ||
V:2
 A, A,2 A, G,2 | A,A,A,- A,2- A,/ z/ | A, A,2 A, G,2 | A, G,2- G,2- G,/ z/ | G, A,2 A, G,2 | %5
 A,A,A,- A,2- A,/ z/ | A, A,2 A, G,2 | A, A,2- A,2- A,/ z/ | A, C2 A, A,2 | A,A,E,- E,2- E,/ z/ | %10
 A, C2 A, A,2 | F, G,2- G,2- G,/ z/ | G, A,2 A, G,2 | A,A,A,- A,2- A,/ z/ | A, A,2 A, G,2 | %15
 A, A,2- A,3- | A,3 z3 |] %17
V:3
 A,, A,,2 A,, B,,2 | C,D,D,- D,2- D,/ z/ | D, E,2 E, E,2 | E, E,2- E,2- E,/ z/ | E, A,,2 A,, B,,2 | %5
 C,D,D,- D,2- D,/ z/ | D, E,2 E, E,2 | A,, [A,,E,]2- [A,,E,]2- [A,,E,]/ z/ | A,, A,,2 A,, D,2 | %9
 D,A,,A,,- A,,2- A,,/ z/ | A,, A,,2 A,, D,2 | D, C,2- C,2- C,/ z/ | B,, A,,2 A,, B,,2 | %13
 C,D,D,- D,2- D,/ z/ | ^D, E,2 E, E,2 | A,, [A,,E,]2- [A,,E,]3- | [A,,E,]3 z3 |] %17

